X:1
T:Title
%%score { ( 1 3 ) | ( 2 4 ) }
L:1/8
Q:1/4=78
M:6/8
K:G
V:1 treble nm="Grand Piano"
V:3 treble 
V:2 bass 
V:4 bass 
V:1
 DEF B2 B | AG[CGc] [DGB]2 [DFA] | GA[=FB] dc[EB] | A3- [DA-]2 [CA] | z3 .B3 | ABc e2 d | d3 z3 | %7
w: S.~M.~Bixby * * * *|||||||
 .[B,G]6 | .[G,B,G]2 [G,B,E] D2 D | cB_B B2 [D=B] | dB[DA] .[G,DG]2 [^CG] | A6 | %12
w: |||||
 DE[B,F] B,C[G,DG] | AB[Ec] [Ge]2 [Gd] | [Fd]3 F2- [FB] | .[G,B,G]6 |] %16
w: ||||
V:2
 [G,B,]2 [G,D] [G,D]2 [G,D] | [F,A,D][=F,B,]E, D,2 C, | z F[G,,G,] ^G,A,[^C,=G,] | G,3 F,3 | %4
 [G,B,]2 [G,B,][K:treble] [G,D]2 [G,DG] | [DF]-[B,DF][A,DF] [_B,^CG]2 [=B,DG] | z3 A2[K:bass] D, | %7
 .G,6 | z FG,, [A,,F,]2 [A,,F,] | [D,F,D]2 [D,F,D] [D,F,D]2 [G,,G,] | B,G,[A,,F,] z F[A,,E,] | %11
 D3 z3 | [G,B,]2 G, G,,A,,B,, | [C,G,]2 [C,A,] [^C,_B,]2 [D,=B,] | [D,A,]3 z2 D | .G,,6 |] %16
V:3
 x6 | x6 | z3 .E3 | E3 z3 | DED z B,B | x6 | F3- F2 [DFB] | x6 | x6 | x6 | x6 | z3 C3 | %12
 z3 .[G,G]3 | .E3 z3 | z3 .[CA]3 | x6 |] %16
V:4
 x6 | x6 | .[B,,G,]3 .C,3 | D,6 | x3[K:treble] x3 | .C3 z3 | [D,C]6[K:bass] | x6 | .G,,3 z3 | x6 | %10
 .[G,,D]3 .B,,3 | [D,F,]6 | x6 | x6 | z3 D,3 | x6 |] %16

